communes/5592.svg

<?xml version="1.0" encoding="UTF-8"?>
<svg version="1.0" viewBox="0 0 603 763" xmlns="http://www.w3.org/2000/svg" xmlns:xlink="http://www.w3.org/1999/xlink">
<defs>
<radialGradient id="a" cx="858.04" cy="579.93" r="300" gradientTransform="matrix(1.215 0 0 1.2667 -839.19 -490.49)" gradientUnits="userSpaceOnUse">
<stop stop-color="#fff" stop-opacity=".31373" offset="0"/>
<stop stop-color="#fff" stop-opacity=".25098" offset=".19"/>
<stop stop-color="#6b6b6b" stop-opacity=".12549" offset=".6"/>
<stop stop-opacity=".12549" offset="1"/>
</radialGradient>
</defs>
<desc>Coat of Arms of Canton of Freiburg (Fribourg)</desc>
<g>
<path d="m1.5 1.5v458.87c0 166.31 134.31 301.13 300 301.13 165.69 0 300-134.82 300-301.13v-458.87h-600z" fill="#fff"/>
<path d="m1.5 251.19v209.18c0 166.31 134.31 301.13 300 301.13 165.69 0 300-134.82 300-301.13v-209.18h-600z" fill="#e20909"/>
<line x1="1.5" x2="601.5" y1="251.19" y2="251.19" fill="none" stroke="#000" stroke-width="3"/>
<g fill="#fff" stroke="#000" stroke-width="3">
<path d="m169.59 420.54c2.799-0.651 6.026-1.059 10.173-1.059 20.273 0 20.273 9.755 40.546 9.755 20.275 0 20.275-9.755 40.549-9.755s20.274 9.755 40.549 9.755c20.272 0 20.272-9.755 40.546-9.755 20.272 0 20.276 9.755 40.547 9.755 20.277 0 20.277-9.755 40.554-9.755 4.146 0 7.443 0.407 10.243 1.059l2e-3 -38.782c-2.802-0.648-6.102-1.059-10.245-1.059-20.276 0-20.276 9.757-40.551 9.757-20.271 0-20.271-9.757-40.546-9.757-20.277 0-20.277 9.757-40.55 9.757-20.271 0-20.271-9.757-40.547-9.757s-20.276 9.757-40.549 9.757c-20.274 0-20.274-9.757-40.547-9.757-4.147 0-7.372 0.41-10.171 1.059l-3e-3 38.782z"/>
<path d="m169.59 498.11c2.799-0.651 6.098-1.059 10.245-1.059 20.273 0 20.273 9.755 40.546 9.755 20.275 0 20.275-9.755 40.549-9.755 20.277 0 20.277 9.755 40.553 9.755 20.27 0 20.27-9.755 40.545-9.755 20.272 0 20.272 9.755 40.545 9.755 20.279 0 20.279-9.755 40.552-9.755 4.146 0 7.447 0.407 10.243 1.059l2e-3 -38.782c-2.798-0.652-6.099-1.06-10.245-1.06-20.272 0-20.272 9.756-40.549 9.756-20.272 0-20.272-9.756-40.546-9.756-20.277 0-20.277 9.756-40.547 9.756-20.276 0-20.276-9.756-40.55-9.756-20.277 0-20.277 9.756-40.551 9.756s-20.274-9.756-40.547-9.756c-4.147 0-7.444 0.407-10.243 1.06l-2e-3 38.782z"/>
<path d="m169.59 575.67c2.799-0.649 6.098-1.058 10.245-1.058 20.273 0 20.273 9.756 40.546 9.756 20.275 0 20.275-9.756 40.549-9.756 20.277 0 20.277 9.756 40.553 9.756 20.271 0 20.271-9.756 40.547-9.756 20.271 0 20.271 9.756 40.546 9.756 20.276 0 20.276-9.756 40.549-9.756 4.146 0 7.447 0.408 10.243 1.058l2e-3 -38.781c-2.798-0.651-6.099-1.059-10.245-1.059-20.272 0-20.272 9.755-40.549 9.755-20.272 0-20.272-9.755-40.546-9.755-20.277 0-20.277 9.755-40.547 9.755-20.276 0-20.276-9.755-40.55-9.755-20.277 0-20.277 9.755-40.551 9.755s-20.274-9.755-40.547-9.755c-4.147 0-7.444 0.407-10.243 1.059l-2e-3 38.781z"/>
<path d="m476.13 486.37c0-46.645-18.164-90.5-51.149-123.48-32.984-32.983-76.836-51.147-123.48-51.147-96.292 0-174.63 78.34-174.63 174.63s78.339 174.63 174.63 174.63c96.291-2e-3 174.63-78.341 174.63-174.63zm-81.361-93.271c24.912 24.915 38.633 58.039 38.633 93.272 0 72.732-59.171 131.9-131.9 131.9-72.734 0-131.9-59.172-131.9-131.9 0-35.233 13.722-68.357 38.634-93.272 24.916-24.911 58.036-38.633 93.271-38.633 35.232 0 68.354 13.722 93.27 38.633z"/>
</g>
</g>
<g>
<path d="m1.5 1.5v458.87c0 166.31 134.31 301.13 300 301.13 165.69 0 300-134.82 300-301.13v-458.87h-600z" fill="url(#a)"/>
<path d="m1.5 1.5v458.87c0 166.31 134.31 301.13 300 301.13 165.69 0 300-134.82 300-301.13v-458.87h-600z" fill="none" stroke="#000" stroke-width="3"/>
</g>
</svg>

<?xml version="1.0" encoding="UTF-8" standalone="no"?>
<!-- Created with Inkscape (http://www.inkscape.org/) -->
<svg
   xmlns:svg="http://www.w3.org/2000/svg"
   xmlns="http://www.w3.org/2000/svg"
   xmlns:xlink="http://www.w3.org/1999/xlink"
   version="1.0"
   width="603"
   height="763"
   id="svg20">
  <defs
     id="defs29">
    <linearGradient
       id="linearGradient2893">
      <stop
         id="stop2895"
         style="stop-color:#ffffff;stop-opacity:0.3137255"
         offset="0" />
      <stop
         id="stop2897"
         style="stop-color:#ffffff;stop-opacity:0.25098041"
         offset="0.19" />
      <stop
         id="stop2901"
         style="stop-color:#6b6b6b;stop-opacity:0.1254902"
         offset="0.60000002" />
      <stop
         id="stop2899"
         style="stop-color:#000000;stop-opacity:0.1254902"
         offset="1" />
    </linearGradient>
    <linearGradient
       id="linearGradient2955">
      <stop
         id="stop2965"
         style="stop-color:#ffffff;stop-opacity:0"
         offset="0" />
      <stop
         id="stop2959"
         style="stop-color:#000000;stop-opacity:0.64583331"
         offset="1" />
    </linearGradient>
    <radialGradient
       cx="858.04236"
       cy="579.93323"
       r="300"
       fx="858.04236"
       fy="579.93323"
       id="radialGradient3236"
       xlink:href="#linearGradient2893"
       gradientUnits="userSpaceOnUse"
       gradientTransform="matrix(1.215027,0,0,1.266667,-839.1924,-490.4894)" />
  </defs>
  <desc
     id="desc22">Coat of Arms of Canton of Freiburg (Fribourg)</desc>
  <g
     id="layer1"
     style="opacity:1;display:inline">
    <path
       d="M 1.5,1.5 L 1.5,460.369 C 1.5,626.68 135.814,761.5 301.5,761.5 C 467.188,761.5 601.5,626.68 601.5,460.369 L 601.5,1.5 L 1.5,1.5 z"
       id="path2636"
       style="opacity:1;fill:#ffffff" />
    <path
       d="M 1.5,251.188 L 1.5,460.369 C 1.5,626.68 135.814,761.5 301.5,761.5 C 467.188,761.5 601.5,626.68 601.5,460.369 L 601.5,251.188 L 1.5,251.188 z"
       id="path2638"
       style="opacity:1;fill:#e20909" />
  </g>
  <g
     id="layer2"
     style="opacity:1;display:inline">
    <line
       y2="251.188"
       x2="601.49701"
       y1="251.188"
       x1="1.500003"
       id="line2592"
       style="fill:none;stroke:#000000;stroke-width:3" />
    <g
       id="g2640">
      <path
         d="M 169.594,420.544 C 172.393,419.893 175.62,419.485 179.767,419.485 C 200.04,419.485 200.04,429.24 220.313,429.24 C 240.588,429.24 240.588,419.485 260.862,419.485 C 281.136,419.485 281.136,429.24 301.411,429.24 C 321.683,429.24 321.683,419.485 341.957,419.485 C 362.229,419.485 362.233,429.24 382.504,429.24 C 402.781,429.24 402.781,419.485 423.058,419.485 C 427.204,419.485 430.501,419.892 433.301,420.544 L 433.303,381.762 C 430.501,381.114 427.201,380.703 423.058,380.703 C 402.782,380.703 402.782,390.46 382.507,390.46 C 362.236,390.46 362.236,380.703 341.961,380.703 C 321.684,380.703 321.684,390.46 301.411,390.46 C 281.14,390.46 281.14,380.703 260.864,380.703 C 240.588,380.703 240.588,390.46 220.315,390.46 C 200.041,390.46 200.041,380.703 179.768,380.703 C 175.621,380.703 172.396,381.113 169.597,381.762 L 169.594,420.544 z"
         id="path2608_5_"
         style="fill:#ffffff;stroke:#000000;stroke-width:3" />
      <path
         d="M 169.594,498.11 C 172.393,497.459 175.692,497.051 179.839,497.051 C 200.112,497.051 200.112,506.806 220.385,506.806 C 240.66,506.806 240.66,497.051 260.934,497.051 C 281.211,497.051 281.211,506.806 301.487,506.806 C 321.757,506.806 321.757,497.051 342.032,497.051 C 362.304,497.051 362.304,506.806 382.577,506.806 C 402.856,506.806 402.856,497.051 423.129,497.051 C 427.275,497.051 430.576,497.458 433.372,498.11 L 433.374,459.328 C 430.576,458.676 427.275,458.268 423.129,458.268 C 402.857,458.268 402.857,468.024 382.58,468.024 C 362.308,468.024 362.308,458.268 342.034,458.268 C 321.757,458.268 321.757,468.024 301.487,468.024 C 281.211,468.024 281.211,458.268 260.937,458.268 C 240.66,458.268 240.66,468.024 220.386,468.024 C 200.112,468.024 200.112,458.268 179.839,458.268 C 175.692,458.268 172.395,458.675 169.596,459.328 L 169.594,498.11 z"
         id="path2608_4_"
         style="fill:#ffffff;stroke:#000000;stroke-width:3" />
      <path
         d="M 169.594,575.673 C 172.393,575.024 175.692,574.615 179.839,574.615 C 200.112,574.615 200.112,584.371 220.385,584.371 C 240.66,584.371 240.66,574.615 260.934,574.615 C 281.211,574.615 281.211,584.371 301.487,584.371 C 321.758,584.371 321.758,574.615 342.034,574.615 C 362.305,574.615 362.305,584.371 382.58,584.371 C 402.856,584.371 402.856,574.615 423.129,574.615 C 427.275,574.615 430.576,575.023 433.372,575.673 L 433.374,536.892 C 430.576,536.241 427.275,535.833 423.129,535.833 C 402.857,535.833 402.857,545.588 382.58,545.588 C 362.308,545.588 362.308,535.833 342.034,535.833 C 321.757,535.833 321.757,545.588 301.487,545.588 C 281.211,545.588 281.211,535.833 260.937,535.833 C 240.66,535.833 240.66,545.588 220.386,545.588 C 200.112,545.588 200.112,535.833 179.839,535.833 C 175.692,535.833 172.395,536.24 169.596,536.892 L 169.594,575.673 z"
         id="path2608_1_"
         style="fill:#ffffff;stroke:#000000;stroke-width:3" />
      <path
         d="M 476.131,486.366 C 476.131,439.721 457.967,395.866 424.982,362.882 C 391.998,329.899 348.146,311.735 301.5,311.735 C 205.208,311.735 126.868,390.075 126.868,486.367 C 126.868,582.659 205.207,660.999 301.5,660.999 C 397.791,660.997 476.131,582.658 476.131,486.366 z M 394.77,393.095 C 419.682,418.01 433.403,451.134 433.403,486.367 C 433.403,559.099 374.232,618.271 301.5,618.271 C 228.766,618.271 169.595,559.099 169.595,486.367 C 169.595,451.134 183.317,418.01 208.229,393.095 C 233.145,368.184 266.265,354.462 301.5,354.462 C 336.732,354.462 369.854,368.184 394.77,393.095 z"
         id="path2604"
         style="fill:#ffffff;stroke:#000000;stroke-width:3" />
    </g>
  </g>
  <g
     id="layer3"
     style="display:inline">
    <path
       d="M 1.5,1.5 L 1.5,460.3679 C 1.5,626.67854 135.81454,761.5 301.49993,761.5 C 467.1854,761.5 601.5,626.67854 601.5,460.3679 L 601.5,1.5 L 1.5,1.5 z"
       id="path2346"
       style="fill:url(#radialGradient3236);fill-opacity:1" />
  </g>
  <g
     id="layer4"
     style="display:inline">
    <path
       d="M 1.5,1.5 L 1.5,460.36794 C 1.5,626.67854 135.81454,761.5 301.49993,761.5 C 467.1854,761.5 601.5,626.67854 601.5,460.36794 L 601.5,1.5 L 1.5,1.5 z"
       id="path3239"
       style="fill:none;fill-opacity:1;stroke:#000000;stroke-width:3;stroke-miterlimit:4;stroke-dasharray:none;stroke-opacity:1" />
  </g>
</svg>
